vinfonet2025/img/recovery.svg

<svg xmlns="http://www.w3.org/2000/svg" width="512" height="512" style="shape-rendering:geometricPrecision;text-rendering:geometricPrecision;image-rendering:optimizeQuality;fill-rule:evenodd;clip-rule:evenodd"><path d="M232.5-.5h27q7.902 7.255 0 14.5Q127.614 17.801 53 125.5A393 393 0 0 0 37.5 154a219 219 0 0 0 15.5-5.5q9.637 2.262 7 12l-3.5 3.5-32 15q-5.52 1.54-9.5-2.5a713 713 0 0 0-15.5-32v-8q5.277-6.3 13-2.5a141 141 0 0 1 8.5 17.5Q76.515 33.065 204.5 4a862 862 0 0 1 28-4.5" style="opacity:.925"/><path d="M232.5 39.5q23.005-.25 46 .5 8.75 2.75 11.5 11.5l9 38a308.5 308.5 0 0 1 40.5 17.5q2.684.78 5-1l30-19q14.61-6.662 23.5 6.5 1.438 5.882-3.5 9.5-6.732.84-13-1l-34 21a57 57 0 0 0-6.5 1.5 57 57 0 0 0-6.5-1.5 174.1 174.1 0 0 0-43-18q-6.657-4.55-8.5-12.5a706 706 0 0 0-8.5-36 181 181 0 0 0-38 0 1593 1593 0 0 1-10.5 42q-2.25 4.25-6.5 6.5a174.1 174.1 0 0 0-43 18q-7.668 2.79-15-1a1742 1742 0 0 0-33.5-20.5 458 458 0 0 0-26 25q-.78 2.684 1 5l20 32a57 57 0 0 0 1.5 6.5 57 57 0 0 0-1.5 6.5 174.3 174.3 0 0 0-18 43q-4.55 6.657-12.5 8.5a3446 3446 0 0 0-36 8.5 181 181 0 0 0 0 38 966 966 0 0 1 42 10.5q4.25 2.25 6.5 6.5a174.3 174.3 0 0 0 18 43q2.734 8.858-2 17a1551 1551 0 0 0-19.5 31.5 458 458 0 0 0 25 26q2.684.78 5-1l32-20a57 57 0 0 0 6.5-1.5 57 57 0 0 0 6.5 1.5 174.3 174.3 0 0 0 43 18q6.657 4.55 8.5 12.5a706 706 0 0 0 8.5 36 181 181 0 0 0 38 0 1592 1592 0 0 1 10.5-42q2.25-4.25 6.5-6.5a174.3 174.3 0 0 0 43-18q7.668-2.79 15 1a1742 1742 0 0 0 33.5 20.5 458 458 0 0 0 26-25q.78-2.684-1-5l-20-32a57 57 0 0 0-1.5-6.5 88.7 88.7 0 0 1 9.5-21.5 857 857 0 0 1 12-31 26 26 0 0 1 7.5-4.5 4045 4045 0 0 0 39-9.5 181 181 0 0 0 0-38 4045 4045 0 0 0-39-9.5 26 26 0 0 1-7.5-4.5 1209 1209 0 0 0-12-31 88.7 88.7 0 0 1-9.5-21.5 57 57 0 0 0 1.5-6.5l21-34a285 285 0 0 0-1.5-9q1.848-10.677 12-6.5 10.689 9.513 4.5 22.5a531 531 0 0 0-20.5 33.5 385 385 0 0 1 18 42 1834 1834 0 0 1 41 10q6.475 3.472 8.5 10.5a529 529 0 0 1 0 46q-2.75 8.75-11.5 11.5l-38 9a385 385 0 0 1-18 42 1939 1939 0 0 0 21.5 35.5q3.132 8.216-1 16L392.5 424q-7.784 4.132-16 1a1939 1939 0 0 0-35.5-21.5 385 385 0 0 1-42 18 1834 1834 0 0 1-10 41q-3.472 6.475-10.5 8.5a529 529 0 0 1-46 0q-8.75-2.75-11.5-11.5l-9-38a385 385 0 0 1-42-18 1939 1939 0 0 0-35.5 21.5q-8.216 3.132-16-1L87 392.5q-4.046-7.808-1-16a1940 1940 0 0 0 21.5-35.5 385 385 0 0 1-18-42 1833 1833 0 0 1-41-10q-6.475-3.472-8.5-10.5a529 529 0 0 1 0-46q2.75-8.75 11.5-11.5l38-9a385 385 0 0 1 18-42A1940 1940 0 0 0 86 134.5q-3.046-8.192 1-16L118.5 87q7.784-4.131 16-1a1940 1940 0 0 0 35.5 21.5 385 385 0 0 1 42-18 1833 1833 0 0 1 10-41q3.733-6.5 10.5-9m13 170q1.736 13.736.5 28-14.39-8.17-7-23 2.948-3.075 6.5-5m17 53q13.123 2.885 14 16.5-.9 13.623-13 19.5a325 325 0 0 1-1-36" style="opacity:.925"/><path d="M240.5 116.5q90.886-5.192 137.5 72 33 67 0 134-46.578 77.42-137.5 71.5-39.487-4.13-70.5-28.5-4.822-13.62 9.5-12.5 53.046 38.653 116 19 70.617-27.425 82.5-102.5 4.938-76.87-58.5-119.5-54.12-30.362-112-8-79.467 38.637-74.5 127.5 4.369 35.217 26 63 2.433 13.935-11.5 10.5-36.089-44.789-30.5-102.5 9.544-71.481 71.5-107.5 24.798-12.685 52-16.5m5 93q-3.552 1.925-6.5 5-7.39 14.83 7 23 1.236-14.264-.5-28m17 53a325 325 0 0 0 1 36q12.1-5.877 13-19.5-.877-13.615-14-16.5" style="opacity:.923"/><path d="M245.5 148.5q39.432-2.394 72 19.5 4.147 4.493 2.5 10.5-3.77 5.567-10.5 3.5-58.817-37.065-114 5-50.148 50.53-18.5 114.5 40.254 59.228 109.5 39.5 61.81-26.836 59.5-94.5-2.547-23.583-16-43-1.862-15.4 12.5-10 29.414 42.771 15.5 93-23.278 65.768-92.5 75.5-65.229 3.26-101.5-50.5-33.505-62.38 6-121 29.387-36.068 75.5-42m0 61q-3.552 1.925-6.5 5-7.39 14.83 7 23 1.236-14.264-.5-28m17 53a325 325 0 0 0 1 36q12.1-5.877 13-19.5-.877-13.615-14-16.5" style="opacity:.926"/><path d="M252.5 178.5q14.15.896 10 15 12.49 2.12 21.5 11 2.73 12.253-9.5 11.5a194 194 0 0 0-11.5-6.5 306 306 0 0 0 0 35q36.934 10.872 27 48-7.219 19.463-27.5 23a85 85 0 0 1-.5 13q-7 8-14 0-2.031-5.794-1.5-12-15.262-.759-26.5-11-4.177-10.152 6.5-12a128 128 0 0 0 20 7 507 507 0 0 0-1-45q-36.269-15.572-19.5-51 8.247-9.249 20.5-11-2.129-9.807 6-15m-7 31q-3.552 1.925-6.5 5-7.39 14.83 7 23 1.236-14.264-.5-28m17 53a325 325 0 0 0 1 36q12.1-5.877 13-19.5-.877-13.615-14-16.5" style="opacity:.934"/><path d="M511.5 366.5v8q-5.277 6.3-13 2.5a141 141 0 0 1-8.5-17.5Q441.356 465.135 330.5 501q-26.264 7.537-53 10.5h-26q-7.902-7.256 0-14.5 131.893-3.805 206.5-111.5a393 393 0 0 0 15.5-28.5 219 219 0 0 0-15.5 5.5q-9.637-2.262-7-12l3.5-3.5 32-15q5.52-1.54 9.5 2.5a712 712 0 0 0 15.5 32" style="opacity:.925"/></svg>

<?xml version="1.0" encoding="UTF-8"?>
<!DOCTYPE svg PUBLIC "-//W3C//DTD SVG 1.1//EN" "http://www.w3.org/Graphics/SVG/1.1/DTD/svg11.dtd">
<svg xmlns="http://www.w3.org/2000/svg" version="1.1" width="512px" height="512px" style="shape-rendering:geometricPrecision; text-rendering:geometricPrecision; image-rendering:optimizeQuality; fill-rule:evenodd; clip-rule:evenodd" xmlns:xlink="http://www.w3.org/1999/xlink">
<g><path style="opacity:0.925" fill="#000000" d="M 232.5,-0.5 C 241.5,-0.5 250.5,-0.5 259.5,-0.5C 264.768,4.33731 264.768,9.17064 259.5,14C 171.576,16.5343 102.743,53.701 53,125.5C 47.4376,134.792 42.271,144.292 37.5,154C 42.6202,152.402 47.7869,150.569 53,148.5C 59.425,150.008 61.7583,154.008 60,160.5C 58.8333,161.667 57.6667,162.833 56.5,164C 45.8333,169 35.1667,174 24.5,179C 20.8201,180.027 17.6534,179.194 15,176.5C 10.0586,165.62 4.8919,154.953 -0.5,144.5C -0.5,141.833 -0.5,139.167 -0.5,136.5C 3.01799,132.3 7.35132,131.467 12.5,134C 15.7338,139.634 18.5671,145.468 21,151.5C 58.0106,72.5433 119.177,23.3766 204.5,4C 213.95,2.32381 223.283,0.823813 232.5,-0.5 Z"/></g>
<g><path style="opacity:0.925" fill="#000000" d="M 232.5,39.5 C 247.837,39.3334 263.17,39.5001 278.5,40C 284.333,41.8333 288.167,45.6667 290,51.5C 293,64.1667 296,76.8333 299,89.5C 312.852,94.3382 326.352,100.172 339.5,107C 341.289,107.52 342.956,107.187 344.5,106C 354.5,99.6667 364.5,93.3333 374.5,87C 384.24,82.5586 392.074,84.7253 398,93.5C 398.959,97.4214 397.792,100.588 394.5,103C 390.012,103.56 385.679,103.227 381.5,102C 370.167,109 358.833,116 347.5,123C 345.302,123.373 343.135,123.873 341,124.5C 338.865,123.873 336.698,123.373 334.5,123C 320.991,115.08 306.658,109.08 291.5,105C 287.062,101.967 284.229,97.8002 283,92.5C 280.479,80.4169 277.646,68.4169 274.5,56.5C 261.833,55.1667 249.167,55.1667 236.5,56.5C 233.191,70.5446 229.691,84.5446 226,98.5C 224.5,101.333 222.333,103.5 219.5,105C 204.342,109.08 190.009,115.08 176.5,123C 171.388,124.86 166.388,124.527 161.5,122C 150.4,115.035 139.234,108.201 128,101.5C 119.042,109.457 110.375,117.79 102,126.5C 101.48,128.289 101.813,129.956 103,131.5C 109.667,142.167 116.333,152.833 123,163.5C 123.373,165.698 123.873,167.865 124.5,170C 123.873,172.135 123.373,174.302 123,176.5C 115.086,189.999 109.086,204.332 105,219.5C 101.967,223.938 97.8002,226.771 92.5,228C 80.4746,230.771 68.4746,233.605 56.5,236.5C 55.1667,249.167 55.1667,261.833 56.5,274.5C 70.574,277.685 84.574,281.185 98.5,285C 101.333,286.5 103.5,288.667 105,291.5C 109.086,306.668 115.086,321.001 123,334.5C 124.823,340.405 124.156,346.072 121,351.5C 114.368,361.933 107.868,372.433 101.5,383C 109.457,391.958 117.79,400.625 126.5,409C 128.289,409.52 129.956,409.187 131.5,408C 142.167,401.333 152.833,394.667 163.5,388C 165.698,387.627 167.865,387.127 170,386.5C 172.135,387.127 174.302,387.627 176.5,388C 189.999,395.914 204.332,401.914 219.5,406C 223.938,409.033 226.771,413.2 228,418.5C 230.521,430.583 233.354,442.583 236.5,454.5C 249.167,455.833 261.833,455.833 274.5,454.5C 277.809,440.455 281.309,426.455 285,412.5C 286.5,409.667 288.667,407.5 291.5,406C 306.668,401.914 321.001,395.914 334.5,388C 339.612,386.14 344.612,386.473 349.5,389C 360.6,395.965 371.766,402.799 383,409.5C 391.958,401.543 400.625,393.21 409,384.5C 409.52,382.711 409.187,381.044 408,379.5C 401.333,368.833 394.667,358.167 388,347.5C 387.627,345.302 387.127,343.135 386.5,341C 388.696,333.45 391.863,326.283 396,319.5C 399.813,309.054 403.813,298.721 408,288.5C 410.258,286.57 412.758,285.07 415.5,284C 428.526,280.895 441.526,277.729 454.5,274.5C 455.833,261.833 455.833,249.167 454.5,236.5C 441.526,233.271 428.526,230.105 415.5,227C 412.758,225.93 410.258,224.43 408,222.5C 404.157,212.15 400.157,201.817 396,191.5C 391.863,184.717 388.696,177.55 386.5,170C 387.127,167.865 387.627,165.698 388,163.5C 395,152.167 402,140.833 409,129.5C 408.561,126.57 408.061,123.57 407.5,120.5C 408.732,113.382 412.732,111.215 419.5,114C 426.626,120.342 428.126,127.842 424,136.5C 416.754,147.413 409.921,158.58 403.5,170C 410.358,183.707 416.358,197.707 421.5,212C 435.208,215.177 448.875,218.51 462.5,222C 466.817,224.315 469.65,227.815 471,232.5C 471.667,247.833 471.667,263.167 471,278.5C 469.167,284.333 465.333,288.167 459.5,290C 446.833,293 434.167,296 421.5,299C 416.358,313.293 410.358,327.293 403.5,341C 410.534,352.9 417.701,364.734 425,376.5C 427.088,381.977 426.755,387.311 424,392.5C 413.5,403 403,413.5 392.5,424C 387.311,426.755 381.977,427.088 376.5,425C 364.734,417.701 352.9,410.534 341,403.5C 327.293,410.358 313.293,416.358 299,421.5C 295.823,435.208 292.49,448.875 289,462.5C 286.685,466.817 283.185,469.65 278.5,471C 263.167,471.667 247.833,471.667 232.5,471C 226.667,469.167 222.833,465.333 221,459.5C 218,446.833 215,434.167 212,421.5C 197.707,416.358 183.707,410.358 170,403.5C 158.1,410.534 146.266,417.701 134.5,425C 129.023,427.088 123.689,426.755 118.5,424C 108,413.5 97.5,403 87,392.5C 84.3025,387.295 83.9692,381.961 86,376.5C 93.2989,364.734 100.466,352.9 107.5,341C 100.642,327.293 94.6418,313.293 89.5,299C 75.7916,295.823 62.1249,292.49 48.5,289C 44.1832,286.685 41.3498,283.185 40,278.5C 39.3333,263.167 39.3333,247.833 40,232.5C 41.8333,226.667 45.6667,222.833 51.5,221C 64.1667,218 76.8333,215 89.5,212C 94.6418,197.707 100.642,183.707 107.5,170C 100.466,158.1 93.2989,146.266 86,134.5C 83.9692,129.039 84.3025,123.705 87,118.5C 97.5,108 108,97.5 118.5,87C 123.689,84.2455 129.023,83.9122 134.5,86C 146.266,93.2989 158.1,100.466 170,107.5C 183.707,100.642 197.707,94.6418 212,89.5C 215.177,75.7916 218.51,62.1249 222,48.5C 224.489,44.1675 227.989,41.1675 232.5,39.5 Z M 245.5,209.5 C 246.658,218.657 246.824,227.991 246,237.5C 236.407,232.053 234.073,224.386 239,214.5C 240.965,212.45 243.132,210.783 245.5,209.5 Z M 262.5,262.5 C 271.249,264.423 275.915,269.923 276.5,279C 275.9,288.082 271.566,294.582 263.5,298.5C 262.501,286.518 262.168,274.518 262.5,262.5 Z"/></g>
<g><path style="opacity:0.923" fill="#000000" d="M 240.5,116.5 C 301.091,113.039 346.924,137.039 378,188.5C 400,233.167 400,277.833 378,322.5C 346.948,374.114 301.115,397.947 240.5,394C 214.175,391.247 190.675,381.747 170,365.5C 166.785,356.42 169.952,352.253 179.5,353C 214.864,378.769 253.531,385.102 295.5,372C 342.578,353.717 370.078,319.55 378,269.5C 381.292,218.253 361.792,178.42 319.5,150C 283.42,129.759 246.087,127.092 207.5,142C 154.522,167.758 129.689,210.258 133,269.5C 135.913,292.978 144.579,313.978 159,332.5C 160.622,341.79 156.789,345.29 147.5,343C 123.441,313.141 113.274,278.974 117,240.5C 123.363,192.846 147.196,157.012 188.5,133C 205.032,124.543 222.365,119.043 240.5,116.5 Z M 245.5,209.5 C 243.132,210.783 240.965,212.45 239,214.5C 234.073,224.386 236.407,232.053 246,237.5C 246.824,227.991 246.658,218.657 245.5,209.5 Z M 262.5,262.5 C 262.168,274.518 262.501,286.518 263.5,298.5C 271.566,294.582 275.9,288.082 276.5,279C 275.915,269.923 271.249,264.423 262.5,262.5 Z"/></g>
<g><path style="opacity:0.926" fill="#000000" d="M 245.5,148.5 C 271.788,146.904 295.788,153.404 317.5,168C 320.265,170.995 321.098,174.495 320,178.5C 317.487,182.212 313.987,183.378 309.5,182C 270.289,157.29 232.289,158.957 195.5,187C 162.068,220.686 155.901,258.853 177,301.5C 203.836,340.985 240.336,354.152 286.5,341C 327.707,323.109 347.54,291.609 346,246.5C 344.302,230.778 338.969,216.445 330,203.5C 328.759,193.234 332.925,189.9 342.5,193.5C 362.109,222.014 367.276,253.014 358,286.5C 342.482,330.345 311.648,355.512 265.5,362C 222.014,364.174 188.181,347.34 164,311.5C 141.663,269.913 143.663,229.58 170,190.5C 189.591,166.455 214.758,152.455 245.5,148.5 Z M 245.5,209.5 C 243.132,210.783 240.965,212.45 239,214.5C 234.073,224.386 236.407,232.053 246,237.5C 246.824,227.991 246.658,218.657 245.5,209.5 Z M 262.5,262.5 C 262.168,274.518 262.501,286.518 263.5,298.5C 271.566,294.582 275.9,288.082 276.5,279C 275.915,269.923 271.249,264.423 262.5,262.5 Z"/></g>
<g><path style="opacity:0.934" fill="#000000" d="M 252.5,178.5 C 261.934,179.097 265.267,184.097 262.5,193.5C 270.827,194.913 277.993,198.58 284,204.5C 285.82,212.669 282.653,216.502 274.5,216C 270.748,213.707 266.914,211.54 263,209.5C 262.333,221.167 262.333,232.833 263,244.5C 287.623,251.748 296.623,267.748 290,292.5C 285.187,305.475 276.021,313.142 262.5,315.5C 262.666,319.846 262.499,324.179 262,328.5C 257.333,333.833 252.667,333.833 248,328.5C 246.646,324.637 246.146,320.637 246.5,316.5C 236.326,315.994 227.492,312.328 220,305.5C 217.215,298.732 219.382,294.732 226.5,293.5C 232.917,296.367 239.584,298.7 246.5,300.5C 246.833,285.485 246.499,270.485 245.5,255.5C 221.321,245.119 214.821,228.119 226,204.5C 231.498,198.334 238.332,194.668 246.5,193.5C 245.081,186.962 247.081,181.962 252.5,178.5 Z M 245.5,209.5 C 243.132,210.783 240.965,212.45 239,214.5C 234.073,224.386 236.407,232.053 246,237.5C 246.824,227.991 246.658,218.657 245.5,209.5 Z M 262.5,262.5 C 262.168,274.518 262.501,286.518 263.5,298.5C 271.566,294.582 275.9,288.082 276.5,279C 275.915,269.923 271.249,264.423 262.5,262.5 Z"/></g>
<g><path style="opacity:0.925" fill="#000000" d="M 511.5,366.5 C 511.5,369.167 511.5,371.833 511.5,374.5C 507.982,378.7 503.649,379.533 498.5,377C 495.266,371.366 492.433,365.532 490,359.5C 457.57,429.924 404.404,477.09 330.5,501C 312.991,506.025 295.324,509.525 277.5,511.5C 268.833,511.5 260.167,511.5 251.5,511.5C 246.232,506.663 246.232,501.829 251.5,497C 339.429,494.463 408.262,457.297 458,385.5C 463.562,376.208 468.729,366.708 473.5,357C 468.38,358.598 463.213,360.431 458,362.5C 451.575,360.992 449.242,356.992 451,350.5C 452.167,349.333 453.333,348.167 454.5,347C 465.167,342 475.833,337 486.5,332C 490.18,330.973 493.347,331.806 496,334.5C 500.941,345.38 506.108,356.047 511.5,366.5 Z"/></g>
</svg>
